!!!COM:	Martini, Johannes
!!!CDT:	~1440///-~1497//
!!!OTL:	Levavi oculos meos
!!!AGN:	Motet
!!!SCT:	Mar2067
!!!SCA:	Mar2067
!!!voices:	2
**kern	**kern
*staff2	*staff1
*Ivox	*Ivox
*I"Tenor	*I"Superius
*I'T	*I'S
*>[A,B,C,D,E,F,G,H,I,J]	*>[A,B,C,D,E,F,G,H,I,J]
*>A	*>A
*clefGv2	*clefG2
*k[]	*k[]
*M2/1	*M2/1
*met(C)	*met(C)
=1-	=1-
!!LO:TX:Z=8:t=Choir 1
!!section: Unde veniet
!!!OMD: Unde veniet
2A/	2a/
2A/	2a/
2c\	2a/
2c\	2a/
=2	=2
1c	1a
1B	1g
=3	=3
2.A/	2.f/
4B\	4g/
2c\	2a/
[2d\	[2b-i\
=4	=4
2d\]	2b-\]
2c\	1a
1B-i	.
.	2g/
=5	=5
0Al	0al
=6||	=6||
*>B	*>B
!!section: Auxilium meum
!!!OMD: Auxilium meum
!!LO:TX:Z=8:t=Choir 2
1A	1a
2c\	2a/
2c\	2a/
=7	=7
2c\	2a/
2c\	2a/
2c\	2a/
2c\	2a/
=8	=8
2c\	2a/
2c\	2a/
1A	1a
=9	=9
1r	1r
2c\	2a/
2c\	2a/
=10	=10
1c	1a
1c	1a
=11	=11
2B-i\	2g/
2A/	2f/
1B-i	1g
=12	=12
0Al	0al
=13||	=13||
*>C	*>C
!!LO:TX:Z=8:t=Choir 1
!!section: Non det in comotionem
!!!OMD: Non det in comotionem
1A	1a
1c	1a
=14	=14
1c	1a
2c\	2a/
2c\	2a/
=15	=15
2c\	2a/
2c\	2a/
1c	1a
=16	=16
2c\	2a/
2c\	2a/
1c	1a
=17	=17
1A	1a
1r	1r
=18	=18
2c\	2a/
2c\	2a/
2c\	2a/
2c\	2a/
=19	=19
1c	1a
1c	1a
=20	=20
2B-i\	2g/
2A/	2f/
1B-i	1g
=21	=21
0Al	0al
=22||	=22||
*>D	*>D
!!section: Ecce non dormitabit
!!!OMD: Ecce non dormitabit
!!LO:TX:Z=8:t=Choir 2
1A	1a
2c\	2a/
2c\	2a/
=23	=23
2c\	2a/
2c\	2a/
1c	1a
=24	=24
1c	1a
2c\	2a/
2c\	2a/
=25	=25
2c\	2a/
2c\	2a/
1A	1a
=26	=26
1r	1r
2c\	2a/
2c\	2a/
=27	=27
2B-i\	2g/
2A/	2f/
2B-i\	2g/
2B-i\	2g/
=28	=28
0Al	0al
=29||	=29||
*>E	*>E
!!LO:TX:Z=8:t=Choir 1
!!section: Dominus custodit te, Dominus
!!!OMD: Dominus custodit te, Dominus
2A/	2a/
2A/	2a/
2c\	2a/
2c\	2a/
=30	=30
2c\	2a/
2c\	2a/
1c	1a
=31	=31
2c\	2a/
2c\	2a/
2c\	2a/
2d\	2b\
=32	=32
1e	2cc\
.	1b
2d\	.
2c\	[2a/
=33	=33
1B	2a/]
.	2g#i/
1A	1a
=34	=34
1r	1r
2c\	2a/
2c\	2a/
=35	=35
1c	1a
2B\	2g/
2A/	2f/
=36	=36
2B\	2g/
2c\	1a
1B	.
.	2g#i/
=37	=37
0Al	0al
=38||	=38||
*>F	*>F
!!LO:TX:Z=8:t=Choir 2
!!section: Per diem
!!!OMD: Per diem
1A	1a
2c\	2a/
2c\	2a/
=39	=39
2c\	2a/
2c\	2a/
2c\	2a/
2c\	2a/
=40	=40
1A	1a
1r	1r
=41	=41
2c\	2a/
2c\	2a/
1c	1a
=42	=42
2B-i\	2g/
2A/	2f/
1B-i	1g
=43	=43
0Al	0al
=44||	=44||
*>G	*>G
!!section: Dominus custodit te ab omni
!!!OMD: Dominus custodit te ab omni
!!LO:TX:Z=8:t=Choir 1
2A/	2a/
2A/	2a/
2c\	2a/
2c\	2a/
=45	=45
2c\	2a/
2c\	2a/
1c	1a
=46	=46
2c\	2a/
1d	1b
2c\	[2a/
=47	=47
1B	2a/]
.	2g#i/
1A	1a
=48	=48
1r	1r
1c	1a
=49	=49
2c\	2a/
2c\	2a/
1c	1a
=50	=50
1B-i	1g
2A/	2f/
2B-i\	2g/
=51	=51
2c\	2a/
1d	1b-i
2c\	[2a/
=52	=52
1B-i	2a/]
.	2g/
1Al	1al
=53||	=53||
*>H	*>H
!!section: Dominus custodiat
!!!OMD: Dominus custodiat
!!LO:TX:Z=8:t=Choir 2
2A/	2a/
2A/	2a/
2c\	2a/
2c\	2a/
=54	=54
2c\	2a/
2c\	2a/
1c	1a
=55	=55
1c	1a
2c\	2a/
2c\	2a/
=56	=56
2c\	2a/
2c\	2a/
1c	1a
=57	=57
2c\	2a/
2A/	2a/
2B\	2g/
2c\	2a/
=58	=58
1d	1b
1A	1a
=59	=59
1r	1r
2c\	2a/
2c\	2a/
=60	=60
2c\	2a/
2c\	2a/
1c	1a
=61	=61
2B-i\	2g/
2A/	2f/
2B-i\	2g/
2B-i\	2g/
=62	=62
0Al	0al
=63||	=63||
*>I	*>I
!!section: Gloria Patri
!!!OMD: Gloria Patri
!!LO:TX:Z=8:t=Choir 1
1A	1a
2c\	2a/
2c\	2a/
=64	=64
1c	1a
2c\	2a/
[2d\	[2b\
=65	=65
2d\]	2b\]
2c\	1a
1B	.
.	2g#i/
=66	=66
1A	1a
1r	1r
=67	=67
1c	1a
2c\	2a/
2c\	2a/
=68	=68
2B-i\	2g/
2A/	2f/
1B-i	1g
=69	=69
0Al	0al
=70||	=70||
*>J	*>J
!!section: Sicut erat
!!!OMD: Sicut erat
!!LO:TX:Z=8:t=Choir 2
2A/	2a/
2A/	2a/
2c\	2a/
2c\	2a/
=71	=71
2c\	2a/
2c\	2a/
2c\	2a/
2c\	2a/
=72	=72
1c	1a
1c	1a
=73	=73
2c\	2a/
2c\	2a/
1c	1a
=74	=74
1A	1a
1r	1r
=75	=75
2c\	2a/
2c\	2a/
2c\	2a/
2c\	2a/
=76	=76
1c	1a
2c\	2a/
2c\	2a/
=77	=77
2B-i\	2g/
2A/	2f/
1B-i	1g
=78	=78
0Al	0al
==	==
*-	*-
!!!RDF**kern: l=long note in original notation
!!!RDF**kern: i=editorial accidental
!!!ENC:	Chris Gage 02-10-2014
!!!END:	2014/10/05/
!!!EED:	Jesse Rodin
!!!EEV:	2014/10/18/
!!!ONB:	Translated from MusicXML and edited on 2014/10/18/ by Craig Sapp
!!muse2ps: C^@{COM}^i2I150v85,150Q16c130
